P3
# Tiled graphite micro-surface for the AthenaBOX shell.
8 8
255
34 37 46  43 45 55  31 34 42  48 49 58  37 40 49  29 32 40  45 47 56  35 38 47
40 42 51  30 33 41  47 49 58  35 38 46  44 46 55  32 35 43  39 42 51  49 50 59
29 32 40  46 48 57  38 40 49  33 36 44  50 51 60  36 39 47  43 45 54  31 34 42
47 49 58  35 38 46  42 44 53  30 33 41  39 42 50  48 50 59  34 37 45  45 47 56
36 39 47  50 51 60  32 35 43  44 46 55  29 32 40  41 43 52  47 49 58  34 37 45
43 45 54  31 34 42  49 50 59  37 40 48  45 47 56  33 36 44  39 42 50  48 50 59
32 35 43  44 46 55  36 39 47  49 50 59  30 33 41  42 44 53  47 49 58  35 38 46
48 50 59  34 37 45  41 43 52  29 32 40  46 48 57  38 40 49  50 51 60  32 35 43
